!!!COM:	la Rue, Pierre de
!!!CDT:	~1452///-1518/11/20
!!!OPR:	Missa de beata virgine
!!!ONM:	5
!!!OTL:	Agnus Dei
!!!AGN:	Mass; Agnus Dei
!!!SCT:	Rue1008e
!!!SCA:	Rue1008e
!!!voices:	4
!!!voices-OPR:	4
**kern	**kern	**kern	**kern
*staff4	*staff3	*staff2	*staff1
*Ivox	*Ivox	*Ivox	*Ivox
*I"Bassus	*I"Tenor	*I"Contra	*I"Superius
*I'B	*I'T	*I'C	*I'S
*>[A,B]	*>[A,B]	*>[A,B]	*>[A,B]
*>A	*>A	*>A	*>A
*clefF4	*clefGv2	*clefGv2	*clefG2
*k[b-]	*k[b-]	*k[b-]	*k[b-]
*M3/1	*M3/1	*M3/1	*M3/1
*met(O)	*met(O)	*met(O)	*met(O)
!!section: Agnus Dei I
!!!OMD: Agnus Dei I
=1-	=1-	=1-	=1-
0.r	[0.c	1c	0cc
.	.	2c\	.
.	.	1A	.
.	.	.	1a
.	.	[2F/	.
=2	=2	=2	=2
0.r	0.c]	2F/]	1f
.	.	1f	.
.	.	.	0g
.	.	4e\	.
.	.	4d\	.
.	.	1e	.
=3	=3	=3	=3
0F	0A	0f	2f/
.	.	.	2.cc\
.	.	.	4b-\
.	.	.	2.a/
1D	1F	2f\	.
.	.	.	4g/
.	.	[2d\	4f/
.	.	.	4e/
=4	=4	=4	=4
1BB-	0.G	2d\]	2d/
.	.	2d\	2.g/
0C	.	0c	.
.	.	.	4f/
.	.	.	4e/
.	.	.	4d/
.	.	.	1e
=5	=5	=5	=5
2r	0F	2.A/	1f
2F\	.	.	.
.	.	4B-\	.
2.A\	.	2c\	2r
.	.	2d\	2f/
4B-\	.	.	.
2c\	2r	2c\	2.a/
2d\	2F/	2f\	.
.	.	.	4b-\
=6	=6	=6	=6
2c\	2.A/	2e\	2cc\
2F\	.	2.a\	1dd
.	4B-\	.	.
1A	1c	.	.
.	.	4g\	.
.	.	4e\	2.cc\
.	.	4f\	.
1G	1d	1g	.
.	.	.	4bni\
.	.	.	2bni\
=7	=7	=7	=7
2r	0.c	2r	1cc
2.C/	.	2.e\	.
.	.	.	2r
4D\	.	4f\	.
2E\	.	2g\	1cc
[1F	.	[1a	.
.	.	.	2cc\
=8	=8	=8	=8
1F]	0.f	1a]	1dd
0D	.	1.A	0ff
.	.	2F/	.
=9	=9	=9	=9
2C/	1g	2c\	2ee\
2BB-/	.	2d\	1dd
1C	2e\	1g	.
.	2c\	.	1cc
1G	1d	2r	.
.	.	[2g\	2bni\
=10	=10	=10	=10
2r	1c	4g\]	0cc
.	.	4f\	.
2.c\	.	4e\	.
.	.	4d\	.
.	2r	1c	.
4B-\	.	.	.
4A\	2.c\	.	.
4G\	.	.	.
1F	.	2r	2r
.	4B-\	.	.
.	4A/	[2c\	[2cc\
.	4G/	.	.
=11	=11	=11	=11
1.F	2F/	2c\]	4cc\]
.	.	.	4b-\
.	2.f\	2B-\	4a/
.	.	.	4g/
.	.	2.A/	1f
.	4e\	.	.
2E\	4d\	.	.
.	4c\	4G/	.
1D	2.B-\	2.F/	1ff
.	4A/	4E/	.
=12	=12	=12	=12
0C	0c	2G/	1.ee
.	.	1g	.
.	.	4f\	4dd\
.	.	4e\	4cc\
1r	1r	1f	2dd\
.	.	.	[2cc\
=13	=13	=13	=13
2.C/	0c	1e	4cc\]
.	.	.	4b-\
.	.	.	1g
4D\	.	.	.
2E\	.	1r	.
2.F\	.	.	2.cc\
.	[1A	2r	.
4G\	.	.	4b-\
2A\	.	2e\	[2a/
=14	=14	=14	=14
1D	1A]	1.f	4a/]
.	.	.	4g/
.	.	.	2.f/
4D\	0F	.	.
4E\	.	.	4g/
4F\	.	4e\	4a/
4G\	.	4d\	4b-\
1A	.	1c	1cc
=15	=15	=15	=15
1.G	[0.B-	1g	2.dd\
.	.	.	4cc\
.	.	1d	2b-\
2F\	.	.	2a/
2.E-i\	.	2r	2g/
.	.	[2g\	4f/
8D/L	.	.	4e/
8C/J	.	.	.
=16	=16	=16	=16
0BB-	0B-]	2g\]	2d/
.	.	1f	1dd
.	.	4e\	1ff
.	.	4d\	.
1F	1A	2c\	.
.	.	2f\	2ff\
=17	=17	=17	=17
0C	0G	4g\	1ee
.	.	4f\	.
.	.	4e\	.
.	.	4d\	.
.	.	1e	1cc
2r	1F	2.f\	2a/
2F\	.	.	[2cc\
.	.	8e\L	.
.	.	8d\J	.
=18	=18	=18	=18
2E\	2r	1c	4cc\]
.	.	.	4b-\
2F\	2F/	.	2a/
2G\	2E/	2r	2g/
2A\	2F/	2d\	2f/
2B-\	2G/	2e\	2e/
2c\	[2A/	4f\	[2a/
.	.	4e\	.
=19	=19	=19	=19
2F\	4A/]	4d\	2a/]
.	4B-\	4c\	.
2E\	2c\	1c	1g
1D	1F	.	.
.	.	2B-\	1f
1C	1G	1c	.
.	.	.	2e/
=20	=20	=20	=20
1r	0.Fl	0.cl	0.fl
1F	.	.	.
1Fl	.	.	.
!!LO:LB:i:g=z
=21||	=21||	=21||	=21||
*>B	*>B	*>B	*>B
*clefF4	*clefGv2	*clefGv2	*clefG2
*k[b-]	*k[b-]	*k[b-]	*k[b-]
*M2/1	*M2/1	*M2/1	*M2/1
*met(C|)	*met(C|)	*met(C|)	*met(C|)
!!section: Agnus Dei II
!!!OMD: Agnus Dei II
0F	[0f	0r	0cc
=22	=22	=22	=22
1.F	0f_	0r	1.cc
4G\	.	.	4b-\
4A\	.	.	4a/
=23	=23	=23	=23
2B-\	0f]	0r	2dd\
1A	.	.	1cc
4G\	.	.	4b-\
4F\	.	.	4a/
=24	=24	=24	=24
0c	0e	1r	0g
.	.	1g	.
=25	=25	=25	=25
1.C	0e	1.g	0cc
4D\	.	4f\	.
4E\	.	4e\	.
=26	=26	=26	=26
2F\	0c	2a\	0cc
1E	.	1g	.
4D\	.	4f\	.
4C/	.	4e\	.
=27	=27	=27	=27
1G	[0d	1d	1b-
1F	.	[1f	[1a
=28	=28	=28	=28
0D	0d]	2f\]	2a/]
.	.	4e\	4g/
.	.	4d\	4f/
.	.	2g\	2b-\
.	.	[2f\	[2a/
=29	=29	=29	=29
0A	0e	2f\]	2a/]
.	.	4e\	4g/
.	.	4d\	4f/
.	.	2.c#i\	1e
.	.	4Bni\	.
=30	=30	=30	=30
[0D	[0f	1d	[0d
.	.	[1a	.
=31	=31	=31	=31
0D]	0f]	2a\]	0d]
.	.	4g\	.
.	.	4f\	.
.	.	2b-\	.
.	.	[2a\	.
=32	=32	=32	=32
0A	1e	2a\]	1r
.	.	4g\	.
.	.	4f\	.
.	1c	1e	1e
=33	=33	=33	=33
[0D	[0d	1.d	1.f
.	.	4c\	4e/
.	.	4B-\	4d/
=34	=34	=34	=34
0D]	0d_	2A/	2.f/
.	.	2F/	.
.	.	.	4g/
.	.	1f	1a
=35	=35	=35	=35
0G	0d]	0g	0b-
=36	=36	=36	=36
[0D	[0f	2f\	1a
.	.	2.d\	.
.	.	.	2a/
.	.	4e\	.
.	.	4f\	[2dd\
.	.	4g\	.
=37	=37	=37	=37
0D]	0f]	0a	4dd\]
.	.	.	4ee\
.	.	.	1ff
.	.	.	4ee\
.	.	.	4dd\
=38	=38	=38	=38
0A	1.e	1.a	0cc
.	4d\	4g\	.
.	4c\	4f\	.
=39	=39	=39	=39
1A	2f\	2a\	1cc
.	1e	2A/	.
1G	.	2B-\	1b-
.	[2d\	2G/	.
=40	=40	=40	=40
1F	2d\]	4A/	1a
.	.	4B-\	.
.	1c	4c\	.
.	.	4d\	.
1E	.	4e\	1g
.	.	4f\	.
.	2B-\	[2g\	.
=41	=41	=41	=41
1G	2e-i\	2g\]	2r
.	1d	2G/	1dd
2F\	.	2A/	.
2E\	[2c\	[2G/	2ee\
=42	=42	=42	=42
1D	2c\]	2G/]	1ff
.	2Bni\	2F/	.
1C	2.c\	1G	2ee\
.	.	.	[2gg\
.	4d\	.	.
=43	=43	=43	=43
2r	4e\	0r	4gg\]
.	4f\	.	4ff\
1c	1g	.	4ee\
.	.	.	4dd\
.	.	.	2ee\
2B-\	4f\	.	[2dd\
.	4e\	.	.
=44	=44	=44	=44
1A	4f\	1r	2dd\]
.	4e\	.	.
.	4d\	.	1cc
.	4c\	.	.
1G	1d	2r	.
.	.	[2g\	2bni\
=45	=45	=45	=45
1C	0c	4g\]	0cc
.	.	4f\	.
.	.	4e\	.
.	.	4d\	.
2r	.	2e\	.
[2c\	.	[2a\	.
=46	=46	=46	=46
4c\]	0r	4a\]	0r
4B-\	.	4g\	.
4A\	.	4f\	.
4G\	.	4e\	.
2A\	.	2f\	.
[2G\	.	2g\	.
=47	=47	=47	=47
2G\]	[0c	2e\	0r
2.F\	.	1a	.
4E\	.	.	.
2E\	.	[2g\	.
=48	=48	=48	=48
1F	0c]	2g\]	1r
.	.	1f	.
1C	.	.	[1cc
.	.	2e\	.
=49	=49	=49	=49
[0F	[0A	1.f	2cc\]
.	.	.	2a/
.	.	.	1a
.	.	4e\	.
.	.	4d\	.
=50	=50	=50	=50
0F]	0A]	1c	2r
.	.	.	1cc
.	.	2r	.
.	.	2f\	4b-\
.	.	.	4a/
=51	=51	=51	=51
2r	[0c	2e\	2g/
1F	.	2f\	1a
.	.	1c	.
2E\	.	.	2g/
=52	=52	=52	=52
2F\	0c]	1r	2a/
2E\	.	.	2g/
1F	.	2r	2a/
.	.	[2f\	2f/
=53	=53	=53	=53
1C	2.c\	2f\]	1g
.	.	2e\	.
.	4B-\	.	.
[1F	4A/	2f\	1f
.	4G/	.	.
.	[2A/	4e\	.
.	.	4d\	.
=54	=54	=54	=54
2F\]	2A/]	2c\	0cc
4E\	2F/	1f	.
4D\	.	.	.
1C	1G	.	.
.	.	2e\	.
=55	=55	=55	=55
[0F	1F	1f	0a
.	[1c	1F	.
=56	=56	=56	=56
0F]	2c\]	1.c	1r
.	2A/	.	.
.	1A	.	2r
.	.	2A/	[2cc\
=57	=57	=57	=57
0r	2r	2.A/	2cc\]
.	1c	.	4b-\
.	.	4B-\	4a/
.	.	4c\	2g/
.	.	4d\	.
.	4B-\	[2e\	2a/
.	4A/	.	.
=58	=58	=58	=58
0r	2G/	2e\]	2b-\
.	1A	4d\	1cc
.	.	4c\	.
.	.	1d	.
.	2G/	.	2b-\
=59	=59	=59	=59
0r	2A/	2c\	2cc\
.	2G/	2d\	2b-\
.	2A/	2c\	2cc\
.	2F/	[2f\	2a/
=60	=60	=60	=60
1r	1G	2f\]	1b-
.	.	2e\	.
1F	2F/	[1f	1a
.	[2c\	.	.
=61	=61	=61	=61
1.F	2c\]	2f\]	0r
.	2A/	2d\	.
.	1A	1d	.
2D\	.	.	.
=62	=62	=62	=62
1D	2r	2r	0r
.	1d	1f	.
2r	.	.	.
[2F\	4c\	4e\	.
.	4B-\	4d\	.
=63	=63	=63	=63
2F\]	[0A	2c\	0r
4E\	.	2f\	.
4D\	.	.	.
2C/	.	2e\	.
[2D\	.	2d\	.
=64	=64	=64	=64
2D\]	0A]	1e	1r
2C/	.	.	.
2D\	.	2d\	1a
2C/	.	2e\	.
=65	=65	=65	=65
2D\	1r	[0f	1b-
2BB-/	.	.	.
1F	1A	.	1cc
=66	=66	=66	=66
[0BB-	[0B-	0f]	1.dd
.	.	.	[2ff\
=67	=67	=67	=67
0BB-]	0B-]	[0f	4ff\]
.	.	.	4ee\
.	.	.	1dd
.	.	.	4cc\
.	.	.	4b-\
=68	=68	=68	=68
[0F	1c	0f_	1.a
.	2c\	.	.
.	[2A/	.	2a/
=69	=69	=69	=69
0F]	4A/]	0f]	1a
.	4B-\	.	.
.	1c	.	.
.	.	.	1cc
.	4B-\	.	.
.	4A/	.	.
=70	=70	=70	=70
2r	2G/	0r	2b-\
1F	2F/	.	2a/
.	1G	.	1b-
2E\	.	.	.
=71	=71	=71	=71
2F\	1F	0r	1.a
2D\	.	.	.
2.F\	1r	.	.
.	.	.	4g/
4D\	.	.	4f/
=72	=72	=72	=72
2E\	1r	1r	2g/
2D\	.	.	2f/
2F\	1F	1f	[1cc
4E\	.	.	.
4D\	.	.	.
=73	=73	=73	=73
[0C	1.c	0e	2cc\]
.	.	.	4b-\
.	.	.	4a/
.	.	.	1g
.	4B-\	.	.
.	4A/	.	.
=74	=74	=74	=74
0C]	0G	1e	1r
.	.	1e	1g
=75	=75	=75	=75
0r	[0d	0f	1a
.	.	.	2a/
.	.	.	[2b-\
=76	=76	=76	=76
1G	0d]	1g	2b-\]
.	.	.	2b-\
2F\	.	2d\	1a
2D\	.	[2f\	.
=77	=77	=77	=77
2F\	0c	2f\]	2a/
2E\	.	2g\	1g
1C	.	1e	.
.	.	.	2g/
=78	=78	=78	=78
1D	1A	1.d	1f
2D\	2A/	.	2f/
[2E\	[2G/	2B-\	[2g/
=79	=79	=79	=79
2E\]	2G/]	1c	2g/]
2E\	2G/	.	4f/
.	.	.	4e/
1D	1A	2d\	2f/
.	.	2A/	2d/
=80	=80	=80	=80
2D\	2F/	2B-\	2f/
1C	2.G/	2.c\	2.e/
.	4A/	4d\	4f/
2C/	4B-\	2e\	4g/
.	4c\	.	4a/
=81	=81	=81	=81
1BB-	2d\	2f\	2.b-\
.	1B-	1d	.
.	.	.	4a/
1E-	.	.	4g/
.	.	.	4f/
.	2G/	[2c\	[2g/
=82	=82	=82	=82
1D	2A/	2c\]	2g/]
.	2F/	2B-\	1f
1C	1G	1c	.
.	.	.	2e/
=83	=83	=83	=83
1r	[0Fl	[0cl	[0fl
1FF	.	.	.
=84	=84	=84	=84
0FFl	0F]	0c]	0f]
==	==	==	==
*-	*-	*-	*-
!!!RDF**kern: l=long note in original notation
!!!RDF**kern: i=editorial accidental
!!!RDF**kern: V=start of tuplet marker
!!!RDF**kern: Z=end of tuplet marker
!!!ENC:	Chris Gage 09-22-2012
!!!END:	2012/10/13/
!!!EED:	Jesse Rodin
!!!EEV:	2012/10/13/
!!!ONB:	Translated from MusicXML and edited on 2012/10/13/ by Craig Sapp
!!muse2ps: T^@{OPR}^u^@{ONM}{. }@{OTL}^C^@{COM}^i2I150v85,85,85,150Q16
